**kern	**kern	**dynam
*part1	*part1	*part1
*staff2	*staff1	*
*I"Piano	*	*
*clefF4	*clefG2	*
*k[f#c#g#d#]	*k[f#c#g#d#]	*
=1	=1	=1
*^	*	*
4Gn)	4C#]	(8.A#XL	.
.	.	16c#Jk	.
(8.BBL	2BB	4e)	.
16EJk	.	.	.
8.G#XL>	.	4ryy	.
16BJk>)	.	.	.
=	=	=	=
*	*	*^	*
(8.BBBL	2BBB	2d#	(4c#	.
16AAJk	.	.	.	.
2BB)	.	.	4B	.
.	4BBB	4d#	4A)	.
=	=	=	=	=
(8.BBBL	2BBB	(2e	2.G#	.
16AAJk	.	.	.	.
2BB)	.	.	.	.
.	4BBB	4B)	.	.
*	*	*clefF4	*	*
=	=	=	=	=
!	!	!	!	!LO:DY:a
!	!	!	!	!LO:DY:a
(8.BBBL	2BBB	2B	(4F# 4A	??? >
16AAJk	.	.	.	.
4BB	.	.	4E 4G#	.
4AA)	4BBB	4B	4D#) 4F#	.
=	=	=	=	=
!	!	!	!	!LO:DY:a
!	!	!	!	!LO:DY:a
(8.BBBL	2BBB	2B	(4F# 4A	] p >
16AAJk	.	.	.	.
4BB	.	.	4E 4G#	.
4AA)	4BBB	4B	4D#) 4F#	.
=	=	=	=	=
!	!	!	!	!LO:DY:a
2.AA 2.BB	2.EE	[2.B	2.D# 2.F#	] pp
=	=	=	=	=
2GG# 2BB	2EE	2B]	2E	.
*v	*v	*	*	*
*	*v	*v	*
==	==	==
*-	*-	*-
!!!system-decoration: {(s1,s2)}
!!!RDF**kern: > = above
